X:1
T:Title
%%score { ( 1 3 ) | ( 2 4 ) }
L:1/8
M:4/4
K:Bb
V:1 treble nm="Grand Piano"
V:3 treble 
V:2 bass 
V:4 bass 
V:1
 z4 z2[Q:1/4=132] [DF]2 | [DF]2 [DG]2 [DG]3 [DA] | [DA]2 [DB]2 [DB]3 [Ec] | %3
 [Fd]2 [Fd]2 [Ge]2 [Fd]2 | G6 G2 | z4 A2 [EG]2 | G2 F2 [FB]2 [Fd]2 | [=Ed]2 G2 A2 B2 | c6 F2 | %9
 [DF]2 [DG]2 [DG]3 [DA] | [DA]2 [DB]2 [DB]3 [Ec] | [Fd]2 [Fd]2 [Ge]2 [Fd]2 | G6 G2 | c2 B2 A2 G2 | %14
 [DG]2 F2 [Fe]3 [Fd] | [=Ed]2 [Ec]2 d3 c | [DB]6 z2 |[M:3/4] [Fd]2 [Fd]3 [DB] | [EB]2 [EA]4 | %19
 c2 c3 A | [EG]2 [DF]4 | [B,D]2 [CE]2 [DF]2 | [EG]2 [FA]2 [FB]2 | [Ec]2 [EG]2 [Ed]2 | [Fc]6 | %25
 [Fd]2 [Fd]3 [DB] | [EB]2 [EA]4 | c2 c3 A | [EG]2 [DF]4 | [EG]2 [FA]2 [GB]2 | F2 =E2 F2 | d3 d c2 | %32
[M:2/4] [DB]4 |] %33
V:2
 z4 z2 [B,,B,]2 | [B,,B,]2 [B,,B,]2 [B,,B,]3 [B,,F,] | [B,,F,]2 [B,,F,]2 [B,,F,]3 [B,,F,] | %3
 [B,,B,]2 [B,,B,]2 [B,,B,]2 [B,,B,]2 | [E,B,E]6 [E,B,E]2 | z4 E2 z2 | %6
 [B,D]2 [B,D]2 [D,B,]2 [B,,B,]2 | [C,G,]2 [B,C=E]2 [A,CE]2 [G,CE]2 | [F,A,E]6 [F,A,E]2 | %9
 [B,,B,]2 [B,,B,]2 [B,,B,]3 [B,,F,] | [B,,F,]2 [B,,F,]2 [B,,F,]3 [B,,F,] | %11
 [B,,B,]2 [B,,B,]2 [B,,B,]2 [B,,B,]2 | [E,B,E]6 [E,B,E]2 | [E,G,E]2 [E,G,E]2 [E,A,E]2 [E,B,E]2 | %14
 [B,,B,]2 [D,B,]2 [C,A,]3 [B,,B,] | [C,B,]2 [C,B,]2 [F,A,F]3 [F,E] | [B,,F,]6 z2 | %17
[M:3/4] [B,,B,]2 [B,,B,]3 [B,,F,] | [C,F,]2 [C,F,]4 | [F,A,E]2 [F,A,E]3 [F,CE] | %20
 [B,,B,]2 [B,,B,]4 | [B,,F,]2 [B,,F,]2 [B,,B,]2 | [E,B,]2 [E,C]2 [D,B,]2 | %23
 [C,B,]2 [C,B,]2 [C,B,]2 | [F,A,]6 | [B,,B,]2 [B,,B,]3 [B,,F,] | [C,F,]2 [C,F,]4 | %27
 [F,A,E]2 [F,A,E]3 [F,CE] | [B,,B,]2 [B,,B,]4 | [E,B,]2 [E,B,]2 [E,B,]2 | %30
 [F,B,D]2 [^F,B,_D]2 [=F,B,=D]2 | [F,B,F]3 [F,B,F] [F,E]2 |[M:2/4] [B,,F,]4 |] %33
V:3
 x8 | x8 | x8 | x8 | x8 | c2 B2 z A,B,C | x8 | x8 | x8 | x8 | x8 | x8 | x8 | x8 | x8 | x8 | x8 | %17
[M:3/4] x6 | x6 | x6 | x6 | x6 | x6 | x6 | x6 | x6 | x6 | x6 | x6 | x6 | x6 | x6 |[M:2/4] x4 |] %33
V:4
 x8 | x8 | x8 | x8 | x8 | [E,G,E]2 [E,G,E]2 [E,G,]F,G,A, | x8 | x8 | x8 | x8 | x8 | x8 | x8 | x8 | %14
 x8 | x8 | x8 |[M:3/4] x6 | x6 | x6 | x6 | x6 | x6 | x6 | x6 | x6 | x6 | x6 | x6 | x6 | x6 | x6 | %32
[M:2/4] x4 |] %33

